X: 226
T: Bağa Girdim Ay Çıktı
C: Sadi Hoşses
O: Turkey
F: http://compmusic.upf.edu/node/140
N: beyati-araban--sarki--aksak--baga_girdim--sadi_hosses
N: makam= beyati-araban
N: form= sarki
N: usul= aksak = 9/8
M: 9/8
L: 1/16
K: C _1/4B _7/8e ^f 
Q: 1/4=180
%%MIDI tuningsystem comma53
a18 | c'2 b2a4.d4.a6  | c'2b2 a4 .d4 .a6 | \
w:  ARANAĞME  |   |   | 
c'12c'2 _b2a2  | _b12 b2a2 g2 | f2 g2a2 _b2g2 b2a6  | 
w:   |   |   | 
_b3a g2f2 e2d2 c2B2 c2 | _b2 a2g2 f2e2 d2c4B2  | \
w:   |   | 
c3B c2d2 c2B2 B2A2 G2 | 
w:   | 
A6 g2f2 g2a6  | a4 f2g2 a4 a6 | a4a4a4c'6  | \
w:   |  *  Ba ğa  gir dim   |  ay  çık tı  ah   | 
c'4 _b2b2 b4 b2a2 g2 | 
w:  *  kar şı ma  bir   | 
f3ee3dd4a2 agfg  | a4 f2g2 a4 a6 | a4a4a4c'6  | \
w:  yâr  *  çık *  tı   SAZ  |  *  Ba ğa  gir dim   |  ay  çık tı  ah   | 
c'4 _b2b2 b4 b2a2 g2 | 
w:  *  kar şı ma  bir   | 
f3ee3dd4=f4eg  | =f4 f2f2 f4 f4 =e2 | \
w:  yâr  *  çık *  tı   SAZ  |  *  A man  dost lar   | 
g4g4g2 f2e2 d2c2  | 
w:  yâr  de ğil   | 
c4 B2c2 d4 =e2d2 c2 | c3BB3AA4=f4f=e  | \
w:  *  ak lım  ba şım  |  dan  *  çık *  tı   SAZ  | 
=f4 f2f2 f4 f4 =e2 | 
w:  *  A man  dost lar   | 
g4g4g2 f2e2 d2c2  | c4 B2c2 d4 =e2d2 c2 | \
w:  yâr  de ğil   |  *  ak lım  ba şım  | 
c3BB3AA8z2  | a18 | 
w:  dan  *  çık *  tı    |  ARANAĞME  | 
c'2 b2a4.d4.a6  | c'2b2 a4 .d4 .a6 | \
w:   |   | 
c'12c'2 _b2a2  | _b12 b2a2 g2 | f2 g2a2 _b2g2 b2a6  | 
w:   |   |   | 
_b3a g2f2 e2d2 c2B2 c2 | _b2 a2g2 f2e2 d2c4B2  | \
w:   |   | 
c3B c2d2 c2B2 B2A2 G2 | 
w:   | 
A6 g2f2 g2a6  | a4 f2g2 a4 a6 | a4a4a4c'6  | \
w:   |  *  Ba ğa  gir dim   |  ay  çık tı  ah   | 
c'4 _b2b2 b4 b2a2 g2 | 
w:  *  kar şı ma  bir   | 
f3ee3dd4a2 agfg  | a4 f2g2 a4 a6 | a4a4a4c'6  | \
w:  yâr  *  çık *  tı   SAZ  |  *  Ba ğa  gir dim   |  ay  çık tı  ah   | 
c'4 _b2b2 b4 b2a2 g2 | 
w:  *  kar şı ma  bir   | 
f3ee3dd4=f4eg  | =f4 f2f2 f4 f4 =e2 | \
w:  yâr  *  çık *  tı   SAZ  |  *  A man  dost lar   | 
g4g4g2 f2e2 d2c2  | 
w:  yâr  de ğil   | 
c4 B2c2 d4 =e2d2 c2 | c3BB3AA4=f4f=e  | \
w:  *  ak lım  ba şım  |  dan  *  çık *  tı   SAZ  | 
=f4 f2f2 f4 f4 =e2 | 
w:  *  A man  dost lar   | 
g4g4g2 f2e2 d2c2  | c4 B2c2 d4 =e2d2 c2 | \
w:  yâr  de ğil   |  *  ak lım  ba şım  | 
c3BB3AA8z2  | |


